static/sponsors/pipedrive.svg

<?xml version="1.0" encoding="UTF-8"?>
<svg width="820px" height="304px" viewBox="0 0 820 304" version="1.1" xmlns="http://www.w3.org/2000/svg" xmlns:xlink="http://www.w3.org/1999/xlink">
    <!-- Generator: Sketch 42 (36781) - http://www.bohemiancoding.com/sketch -->
    <title>dark_logo</title>
    <desc>Created with Sketch.</desc>
    <defs>
        <polygon id="path-1" points="0 304 820 304 820 0 0 0"></polygon>
        <path d="M33.3002,46.3621 C33.3002,57.8271 39.1164,70.1951 51.9154,70.1951 C61.4071,70.1951 71.0042,62.7849 71.0042,46.1939 C71.0042,31.648 63.4599,21.8828 52.2312,21.8828 C43.0815,21.8828 33.3002,28.3103 33.3002,46.3621 Z M56.7402,0.6438 C79.6889,0.6438 95.1197,18.8196 95.1197,45.8752 C95.1197,72.5058 78.8643,91.0977 55.6261,91.0977 C44.5465,91.0977 37.4496,86.3524 33.7388,82.9173 C33.7652,83.7318 33.7827,84.6437 33.7827,85.6176 L33.7827,121.73009 L10.00936,121.73009 L10.00936,25.5126 C10.00936,24.1138 9.56197,23.6712 8.17592,23.6712 L0,23.6712 L0,2.6003 L19.94855,2.6003 C29.1333,2.6003 31.4843,7.2749 31.9317,10.8782 C35.66,6.6994 43.3885,0.6438 56.7402,0.6438 Z" id="path-3"></path>
        <path d="M34.0461,64.3962 C34.0461,65.7153 34.5549,66.2465 35.8708,66.2465 L44.0555,66.2465 L44.0555,87.1314 L22.7823,87.1314 C14.2467,87.1314 10.264,83.0678 10.264,74.3207 L10.264,23.5118 C10.264,22.1218 9.8166,21.6703 8.4393,21.6703 L0.2546,21.6703 L0.2546,0.5995 L21.5015,0.5995 C29.9318,0.5995 34.0461,4.7959 34.0461,13.4102 L34.0461,64.3962 Z" id="path-5"></path>
        <path d="M52.3056,70.1951 C61.8238,70.1951 71.412,62.7849 71.412,46.1939 C71.412,31.648 63.8677,21.8828 52.639,21.8828 C43.4806,21.8828 33.6993,28.3103 33.6993,46.3621 C33.6993,57.8271 39.5417,70.1951 52.3056,70.1951 Z M57.1568,0.6438 C80.0968,0.6438 95.5187,18.8196 95.5187,45.8752 C95.5187,72.5058 79.2809,91.0977 56.0339,91.0977 C44.9631,91.0977 37.8399,86.3524 34.1467,82.9173 C34.173,83.7318 34.1993,84.6437 34.1993,85.6176 L34.1993,121.73009 L10.4084,121.73009 L10.4084,25.5126 C10.4084,24.1138 9.961,23.6712 8.5838,23.6712 L0.4078,23.6712 L0.4078,2.6003 L20.3652,2.6003 C29.5499,2.6003 31.8922,7.2749 32.3308,10.8782 C36.0766,6.6994 43.7876,0.6438 57.1568,0.6438 Z" id="path-7"></path>
        <path d="M26.3256,33.3859 L57.9064,33.3859 C56.9327,25.5773 51.4236,20.0794 44.2652,20.0794 C35.3524,20.0794 28.9047,24.8956 26.3256,33.3859 Z M44.2652,0.6464 C67.1087,0.6464 82.4605,17.1844 82.4605,41.7965 C82.4605,44.2931 81.9955,49.4014 81.9517,49.6139 L81.8201,51.1898 L25.4396,51.1898 C27.5011,62.6991 36.2209,70.0384 48.1339,70.0384 C60.5469,70.0384 69.9422,61.3003 70.0475,61.2206 L71.5826,59.7509 L81.9429,77.0945 L80.9867,78.0507 C80.4428,78.5819 67.6438,91.1004 46.6952,91.1004 C20.0621,91.1004 0.7363,72.0747 0.7363,45.8778 C0.7363,19.2472 18.6497,0.6464 44.2652,0.6464 Z" id="path-9"></path>
        <path d="M43.535,100.1951 C52.6847,100.1951 62.4747,93.7765 62.4747,75.7158 C62.4747,63.8436 56.7112,51.8828 43.8596,51.8828 C32.5256,51.8828 24.9111,61.5152 24.9111,75.8752 C24.9111,90.6425 32.2273,100.1951 43.535,100.1951 Z M85.9323,96.3971 C85.9323,97.7162 86.4411,98.2474 87.7569,98.2474 L95.7662,98.2474 L95.7662,119.1323 L75.1685,119.1323 C66.2732,119.1323 63.8783,114.4047 63.3958,110.6686 C59.7026,114.9536 52.1408,121.0977 39.026,121.0977 C16.0773,121.0977 0.6553,102.9308 0.6553,75.8752 C0.6553,49.2445 16.7527,30.6438 39.8243,30.6438 C51.6232,30.6438 58.4745,34.8491 61.9835,38.0451 L61.9835,22.9414 C61.9835,21.5426 61.5361,21.0999 60.1588,21.0999 L51.9741,21.0999 L51.9741,0.0203 L73.221,0.0203 C81.7654,0.0203 85.9323,4.2167 85.9323,12.831 L85.9323,96.3971 Z" id="path-11"></path>
        <path d="M57.672,0.4574 C59.5756,0.4574 61.5932,0.785 61.6634,0.8027 L63.1109,1.0506 L63.1109,24.9013 L61.1283,24.6003 C61.0932,24.5914 59.1106,24.2993 56.3824,24.2993 C48.689,24.2993 39.1796,28.5488 35.6005,40.4919 C34.4776,44.5556 33.8986,48.9468 33.8986,53.5062 L33.8986,88.1314 L10.1253,88.1314 L10.1253,24.5118 C10.1253,23.1129 9.6691,22.6703 8.2918,22.6703 L0.1159,22.6703 L0.1159,1.5995 L20.5557,1.5995 C28.9773,1.5995 33.267,5.5834 33.267,13.4274 L33.267,15.4017 C38.6708,6.2209 47.7766,0.4574 57.672,0.4574 Z" id="path-13"></path>
        <path d="M31.9515,64.3962 C31.9515,65.7153 32.4603,66.2465 33.7761,66.2465 L41.9696,66.2465 L41.9696,87.1314 L20.714,87.1314 C12.1608,87.1314 8.1694,83.0678 8.1694,74.3207 L8.1694,23.5118 C8.1694,22.1218 7.7307,21.6703 6.3447,21.6703 L0.204,21.6703 L0.204,0.5995 L19.4244,0.5995 C27.8547,0.5995 31.9515,4.7959 31.9515,13.4102 L31.9515,64.3962 Z" id="path-15"></path>
        <path d="M87.7077,0.6012 L75.0227,0.6012 C67.61,0.6012 63.6361,3.1952 61.285,9.5608 L45.7841,53.2517 C45.249,54.8718 44.749,56.6868 44.3191,58.4309 C43.8717,56.6868 43.3366,54.8453 42.7489,53.2251 L27.2479,9.5519 C24.8706,3.1156 21.0283,0.6012 13.5191,0.6012 L0.027,0.6012 L0.027,21.672 L3.5272,21.672 C5.387,21.672 5.9835,22.3095 6.4221,23.4781 L30.4148,87.1332 L57.1532,87.1332 L81.1459,23.4781 C81.5845,22.3095 82.1986,21.672 84.0583,21.672 L87.7077,21.672 L87.7077,0.6012 Z" id="path-17"></path>
        <path d="M25.7108,33.3859 L57.2916,33.3859 C56.3179,25.5773 50.8175,20.0794 43.6417,20.0794 C34.7376,20.0794 28.3162,24.8956 25.7108,33.3859 Z M43.6417,0.6464 C66.5027,0.6464 81.8632,17.1844 81.8632,41.7965 C81.8632,44.2931 81.3807,49.4014 81.3544,49.6139 L81.2228,51.1898 L24.8248,51.1898 C26.8863,62.6991 35.6061,70.0384 47.5279,70.0384 C59.897,70.0384 69.3449,61.3003 69.4239,61.2206 L71.0029,59.7509 L81.3369,77.0945 L80.3719,78.0507 C79.8368,78.5819 67.029,91.1004 46.0716,91.1004 C19.4385,91.1004 0.1303,72.0747 0.1303,45.8778 C0.1303,19.2472 18.0349,0.6464 43.6417,0.6464 Z" id="path-19"></path>
        <polygon id="path-21" points="21.4197 0.0265 0.2255 0.0265 0.2255 22.5581 21.4197 22.5581"></polygon>
        <polygon id="path-23" points="21.3365 0.0265 0.1335 0.0265 0.1335 22.5581 21.3365 22.5581"></polygon>
    </defs>
    <g id="Page-1" stroke="none" stroke-width="1" fill="none" fill-rule="evenodd">
        <g id="dark_logo">
            <g id="Group-3">
                <mask id="mask-2" fill="white">
                    <use xlink:href="#path-1"></use>
                </mask>
                <g id="Clip-2"></g>
                <polygon id="Fill-1" fill="#FFFFFF" mask="url(#mask-2)" points="-5 310.255474 825 310.255474 825 -5.000026 -5 -5.000026"></polygon>
            </g>
            <g id="Group-6" transform="translate(76.000000, 106.000000)">
                <mask id="mask-4" fill="white">
                    <use xlink:href="#path-3"></use>
                </mask>
                <g id="Clip-5"></g>
                <polygon id="Fill-4" fill="#26292C" mask="url(#mask-4)" points="-5 126.73009 100.1197 126.73009 100.1197 -4.35621 -5 -4.35621"></polygon>
            </g>
            <g id="Group-9" transform="translate(169.000000, 108.000000)">
                <mask id="mask-6" fill="white">
                    <use xlink:href="#path-5"></use>
                </mask>
                <g id="Clip-8"></g>
                <polygon id="Fill-7" fill="#26292C" mask="url(#mask-6)" points="-4.7454 92.1314 49.05544 92.1314 49.05544 -4.40056 -4.7454 -4.40056"></polygon>
            </g>
            <g id="Group-12" transform="translate(208.000000, 106.000000)">
                <mask id="mask-8" fill="white">
                    <use xlink:href="#path-7"></use>
                </mask>
                <g id="Clip-11"></g>
                <polygon id="Fill-10" fill="#26292C" mask="url(#mask-8)" points="-4.5922 126.73009 100.5187 126.73009 100.5187 -4.35621 -4.5922 -4.35621"></polygon>
            </g>
            <g id="Group-15" transform="translate(304.000000, 106.000000)">
                <mask id="mask-10" fill="white">
                    <use xlink:href="#path-9"></use>
                </mask>
                <g id="Clip-14"></g>
                <polygon id="Fill-13" fill="#26292C" mask="url(#mask-10)" points="-4.2637 96.1004 87.46044 96.1004 87.46044 -4.3536 -4.2637 -4.3536"></polygon>
            </g>
            <g id="Group-18" transform="translate(387.000000, 76.000000)">
                <mask id="mask-12" fill="white">
                    <use xlink:href="#path-11"></use>
                </mask>
                <g id="Clip-17"></g>
                <polygon id="Fill-16" fill="#26292C" mask="url(#mask-12)" points="-4.3447 126.0977 100.7662 126.0977 100.7662 -4.9798 -4.3447 -4.9798"></polygon>
            </g>
            <g id="Group-21" transform="translate(478.000000, 107.000000)">
                <mask id="mask-14" fill="white">
                    <use xlink:href="#path-13"></use>
                </mask>
                <g id="Clip-20"></g>
                <polygon id="Fill-19" fill="#26292C" mask="url(#mask-14)" points="-4.8841 93.1314 68.11086 93.1314 68.11086 -4.54263 -4.8841 -4.54263"></polygon>
            </g>
            <g id="Group-24" transform="translate(543.000000, 108.000000)">
                <mask id="mask-16" fill="white">
                    <use xlink:href="#path-15"></use>
                </mask>
                <g id="Clip-23"></g>
                <polygon id="Fill-22" fill="#26292C" mask="url(#mask-16)" points="-4.796 92.1314 46.96963 92.1314 46.96963 -4.40056 -4.796 -4.40056"></polygon>
            </g>
            <g id="Group-27" transform="translate(577.000000, 108.000000)">
                <mask id="mask-18" fill="white">
                    <use xlink:href="#path-17"></use>
                </mask>
                <g id="Clip-26"></g>
                <polygon id="Fill-25" fill="#26292C" mask="url(#mask-18)" points="-4.973 92.1332 92.70763 92.1332 92.70763 -4.39876 -4.973 -4.39876"></polygon>
            </g>
            <g id="Group-30" transform="translate(662.000000, 106.000000)">
                <mask id="mask-20" fill="white">
                    <use xlink:href="#path-19"></use>
                </mask>
                <g id="Clip-29"></g>
                <polygon id="Fill-28" fill="#26292C" mask="url(#mask-20)" points="-4.8697 96.1004 86.86321 96.1004 86.86321 -4.3536 -4.8697 -4.3536"></polygon>
            </g>
            <g id="Group-33" transform="translate(180.000000, 76.000000)">
                <mask id="mask-22" fill="white">
                    <use xlink:href="#path-21"></use>
                </mask>
                <g id="Clip-32"></g>
                <polygon id="Fill-31" fill="#26292C" mask="url(#mask-22)" points="-4.7745 27.5581 26.41974 27.5581 26.41974 -4.9735 -4.7745 -4.9735"></polygon>
            </g>
            <g id="Group-36" transform="translate(552.000000, 76.000000)">
                <mask id="mask-24" fill="white">
                    <use xlink:href="#path-23"></use>
                </mask>
                <g id="Clip-35"></g>
                <polygon id="Fill-34" fill="#26292C" mask="url(#mask-24)" points="-4.8665 27.5581 26.33651 27.5581 26.33651 -4.9735 -4.8665 -4.9735"></polygon>
            </g>
        </g>
    </g>
</svg>

<svg width="820" height="304" xmlns="http://www.w3.org/2000/svg" xmlns:xlink="http://www.w3.org/1999/xlink"><defs><path id="a" d="M0 304h820V0H0z"/><path d="M33.3 46.362c0 11.465 5.816 23.833 18.615 23.833 9.492 0 19.09-7.41 19.09-24.001 0-14.546-7.545-24.311-18.774-24.311-9.15 0-18.93 6.427-18.93 24.48zM56.74.644c22.949 0 38.38 18.176 38.38 45.231 0 26.63-16.256 45.223-39.494 45.223-11.08 0-18.176-4.746-21.887-8.18.026.814.044 1.726.044 2.7v36.112H10.009V25.513c0-1.4-.447-1.842-1.833-1.842H0V2.601h19.949c9.184 0 11.535 4.674 11.983 8.277C35.66 6.7 43.389.644 56.74.644z" id="c"/><path d="M34.046 64.396c0 1.32.509 1.85 1.825 1.85h8.184v20.885H22.783c-8.535 0-12.518-4.063-12.518-12.81V23.51c0-1.39-.447-1.84-1.825-1.84H.255V.598h21.247c8.43 0 12.544 4.197 12.544 12.811v50.986z" id="e"/><path d="M52.306 70.195c9.518 0 19.106-7.41 19.106-24.001 0-14.546-7.544-24.311-18.773-24.311-9.158 0-18.94 6.427-18.94 24.48 0 11.464 5.843 23.832 18.607 23.832zM57.156.644c22.94 0 38.363 18.176 38.363 45.231 0 26.63-16.238 45.223-39.485 45.223-11.07 0-18.194-4.746-21.887-8.18.026.814.052 1.726.052 2.7v36.112H10.41V25.513c0-1.4-.448-1.842-1.825-1.842H.408V2.601h19.957c9.185 0 11.527 4.674 11.966 8.277C36.077 6.7 43.788.644 57.157.644z" id="g"/><path d="M26.326 33.386h31.58c-.973-7.809-6.482-13.307-13.64-13.307-8.914 0-15.361 4.817-17.94 13.307zM44.266.646c22.843 0 38.194 16.538 38.194 41.15 0 2.497-.464 7.605-.508 7.818l-.132 1.576H25.44C27.5 62.7 36.22 70.038 48.134 70.038c12.413 0 21.808-8.738 21.913-8.817l1.536-1.47 10.36 17.343-.956.957c-.544.53-13.343 13.05-34.292 13.05C20.062 91.1.736 72.074.736 45.877.736 19.248 18.65.646 44.266.646z" id="i"/><path d="M43.535 100.195c9.15 0 18.94-6.418 18.94-24.48 0-11.871-5.764-23.832-18.615-23.832-11.334 0-18.949 9.632-18.949 23.992 0 14.767 7.316 24.32 18.624 24.32zm42.397-3.798c0 1.32.51 1.85 1.825 1.85h8.01v20.885H75.167c-8.895 0-11.29-4.727-11.772-8.463-3.693 4.285-11.255 10.429-24.37 10.429-22.949 0-38.37-18.167-38.37-45.223 0-26.63 16.097-45.231 39.168-45.231 11.8 0 18.65 4.205 22.16 7.401V22.941c0-1.398-.448-1.841-1.825-1.841h-8.185V.02h21.247c8.544 0 12.711 4.197 12.711 12.811v83.566z" id="k"/><path d="M57.672.457c1.904 0 3.921.328 3.991.346l1.448.248V24.9l-1.983-.3c-.035-.01-2.017-.302-4.746-.302-7.693 0-17.202 4.25-20.782 16.193-1.122 4.064-1.701 8.455-1.701 13.014v34.625H10.125v-63.62c0-1.398-.456-1.84-1.833-1.84H.116V1.598h20.44c8.421 0 12.711 3.984 12.711 11.828v1.975C38.671 6.22 47.777.457 57.672.457z" id="m"/><path d="M31.951 64.396c0 1.32.51 1.85 1.825 1.85h8.194v20.885H20.714c-8.553 0-12.545-4.063-12.545-12.81V23.51c0-1.39-.438-1.84-1.824-1.84H.204V.598h19.22c8.43 0 12.527 4.197 12.527 12.811v50.986z" id="o"/><path d="M87.708.601H75.023c-7.413 0-11.387 2.594-13.738 8.96l-15.5 43.69c-.536 1.62-1.036 3.436-1.466 5.18-.447-1.744-.982-3.586-1.57-5.206L27.248 9.552C24.87 3.116 21.028.602 13.519.602H.027v21.07h3.5c1.86 0 2.457.637 2.895 1.806l23.993 63.655h26.738l23.993-63.655c.439-1.169 1.053-1.806 2.912-1.806h3.65V.602z" id="q"/><path d="M25.71 33.386h31.582c-.974-7.809-6.474-13.307-13.65-13.307-8.904 0-15.326 4.817-17.931 13.307zM43.643.646c22.86 0 38.221 16.538 38.221 41.15 0 2.497-.482 7.605-.509 7.818l-.131 1.576H24.825c2.061 11.51 10.781 18.848 22.703 18.848 12.369 0 21.817-8.738 21.896-8.817l1.579-1.47 10.334 17.343-.965.957c-.535.53-13.343 13.05-34.3 13.05C19.438 91.1.13 72.074.13 45.877.13 19.248 18.035.646 43.642.646z" id="s"/><path id="u" d="M21.42.026H.225v22.532H21.42z"/><path id="w" d="M21.337.026H.134v22.532h21.203z"/></defs><g fill="none" fill-rule="evenodd"><mask id="b" fill="#fff"><use xlink:href="#a"/></mask><path fill="#FFF" mask="url(#b)" d="M-5 310.255h830V-5H-5z"/><g transform="translate(76 106)"><mask id="d" fill="#fff"><use xlink:href="#c"/></mask><path fill="#26292C" mask="url(#d)" d="M-5 126.73h105.12V-4.356H-5z"/></g><g transform="translate(169 108)"><mask id="f" fill="#fff"><use xlink:href="#e"/></mask><path fill="#26292C" mask="url(#f)" d="M-4.745 92.131h53.8V-4.4h-53.8z"/></g><g transform="translate(208 106)"><mask id="h" fill="#fff"><use xlink:href="#g"/></mask><path fill="#26292C" mask="url(#h)" d="M-4.592 126.73h105.11V-4.356H-4.591z"/></g><g transform="translate(304 106)"><mask id="j" fill="#fff"><use xlink:href="#i"/></mask><path fill="#26292C" mask="url(#j)" d="M-4.264 96.1H87.46V-4.354H-4.264z"/></g><g transform="translate(387 76)"><mask id="l" fill="#fff"><use xlink:href="#k"/></mask><path fill="#26292C" mask="url(#l)" d="M-4.345 126.098h105.111V-4.98H-4.344z"/></g><g transform="translate(478 107)"><mask id="n" fill="#fff"><use xlink:href="#m"/></mask><path fill="#26292C" mask="url(#n)" d="M-4.884 93.131H68.11V-4.543H-4.884z"/></g><g transform="translate(543 108)"><mask id="p" fill="#fff"><use xlink:href="#o"/></mask><path fill="#26292C" mask="url(#p)" d="M-4.796 92.131H46.97V-4.4H-4.796z"/></g><g transform="translate(577 108)"><mask id="r" fill="#fff"><use xlink:href="#q"/></mask><path fill="#26292C" mask="url(#r)" d="M-4.973 92.133h97.68V-4.399h-97.68z"/></g><g transform="translate(662 106)"><mask id="t" fill="#fff"><use xlink:href="#s"/></mask><path fill="#26292C" mask="url(#t)" d="M-4.87 96.1h91.733V-4.354H-4.87z"/></g><g transform="translate(180 76)"><mask id="v" fill="#fff"><use xlink:href="#u"/></mask><path fill="#26292C" mask="url(#v)" d="M-4.774 27.558H26.42V-4.973H-4.775z"/></g><g transform="translate(552 76)"><mask id="x" fill="#fff"><use xlink:href="#w"/></mask><path fill="#26292C" mask="url(#x)" d="M-4.867 27.558h31.204V-4.973H-4.866z"/></g></g></svg>
